img/vk-grey.svg

<svg width="22" height="21" viewBox="0 0 22 21" fill="none" xmlns="http://www.w3.org/2000/svg">
<g id="vk">
<path id="vk_2" d="M10.5134 0C8.43673 0 6.40666 0.615814 4.67994 1.76957C2.95323 2.92332 1.60742 4.5632 0.812697 6.48182C0.0179773 8.40045 -0.189958 10.5116 0.215187 12.5484C0.620332 14.5852 1.62036 16.4562 3.08881 17.9246C4.55726 19.3931 6.42818 20.3931 8.46498 20.7982C10.5018 21.2034 12.613 20.9954 14.5316 20.2007C16.4502 19.406 18.0901 18.0602 19.2439 16.3335C20.3976 14.6068 21.0134 12.5767 21.0134 10.5C21.0134 9.12112 20.7418 7.75574 20.2142 6.48182C19.6865 5.2079 18.9131 4.05039 17.938 3.07538C16.963 2.10036 15.8055 1.32694 14.5316 0.799265C13.2577 0.27159 11.8923 0 10.5134 0ZM17.1209 7.60991C17.0319 7.82011 16.9576 8.03792 16.8504 8.23816C16.4991 8.9033 16.0213 9.48472 15.5728 10.0855C15.3416 10.3946 15.112 10.7055 14.9059 11.0316C14.7484 11.2805 14.7888 11.52 14.9809 11.743C15.074 11.8508 15.1753 11.9515 15.2736 12.0528C15.6531 12.4339 16.0489 12.8005 16.4095 13.1986C16.721 13.5429 17.0454 13.8925 17.1186 14.3849V14.4124C17.0296 14.6811 16.899 14.79 16.608 14.7994C15.9727 14.8199 15.3357 14.8123 14.7016 14.8492C14.1506 14.882 13.7133 14.6735 13.3426 14.2965C13.0411 13.9926 12.7647 13.6641 12.4696 13.3538C12.3614 13.2409 12.2412 13.14 12.1113 13.0528C11.8906 12.9041 11.7325 12.9316 11.5515 13.1284C11.3472 13.3509 11.2922 13.6307 11.2588 13.9159C11.2418 14.0576 11.243 14.201 11.2336 14.3433C11.2155 14.6162 11.0802 14.7789 10.8091 14.7982C10.4929 14.8205 10.1738 14.8211 9.85648 14.8129C9.59453 14.8102 9.3331 14.7887 9.07424 14.7485C8.31307 14.6179 7.66901 14.2256 7.04602 13.7871C6.46812 13.3772 6.03953 12.8327 5.61972 12.277C4.55174 10.8613 3.73788 9.30087 3.02414 7.6831C2.88303 7.36399 2.98725 7.18482 3.33914 7.15614C3.5956 7.13623 3.8544 7.14208 4.11261 7.14033C4.52247 7.13681 4.93232 7.13623 5.34218 7.13447C5.64431 7.13447 5.84572 7.26738 5.98039 7.54433C6.33912 8.29027 6.70877 9.03095 7.08935 9.76635C7.24308 10.0834 7.46407 10.3631 7.73693 10.5861C7.805 10.6407 7.88128 10.6841 7.96294 10.7149C8.12337 10.7734 8.24691 10.7149 8.33005 10.5679C8.46648 10.3273 8.47702 10.0579 8.50571 9.79387C8.58268 9.18925 8.56013 8.57611 8.43896 7.97878C8.36518 7.63274 8.14972 7.45182 7.81656 7.37804C7.76294 7.36076 7.71116 7.3382 7.66198 7.31071C7.68547 7.25733 7.71472 7.20667 7.74923 7.15965C7.88612 7.00059 8.07605 6.89658 8.2838 6.86689C9.07773 6.74282 9.88601 6.74164 10.6803 6.86338C11.0732 6.92603 11.216 7.05894 11.2535 7.51622C11.2828 7.87749 11.2535 8.24343 11.2477 8.60762C11.2424 9.08657 11.2313 9.56552 11.2365 10.0445C11.239 10.1872 11.267 10.3284 11.3191 10.4614C11.4274 10.7412 11.6429 10.7793 11.8712 10.5884C12.2424 10.2781 12.4919 9.87467 12.7495 9.47594C13.1337 8.86894 13.4596 8.22688 13.7226 7.55838C13.7526 7.4813 13.7891 7.40687 13.8315 7.33589C13.8597 7.28517 13.901 7.24293 13.951 7.21358C14.0011 7.18423 14.0581 7.16884 14.1161 7.16902C14.9551 7.15906 15.7936 7.14442 16.6338 7.14501C16.8335 7.14501 17.0437 7.18014 17.1245 7.41844L17.1209 7.60991Z" fill="#707070"/>
</g>
</svg>

<svg width="22" height="21" fill="none" xmlns="http://www.w3.org/2000/svg"><path d="M10.513 0a10.5 10.5 0 100 21 10.5 10.5 0 000-21zm6.608 7.61c-.09.21-.163.428-.27.628-.352.665-.83 1.247-1.278 1.848-.231.309-.461.62-.667.946-.158.248-.117.488.075.711.093.108.194.208.293.31.38.38.775.747 1.136 1.146.311.344.635.694.709 1.186v.027c-.09.27-.22.378-.511.387-.635.02-1.272.013-1.906.05-.551.033-.989-.175-1.36-.553-.3-.303-.577-.632-.872-.942a2.176 2.176 0 00-.359-.301c-.22-.149-.379-.121-.56.075-.204.223-.259.503-.292.788-.017.142-.016.285-.025.427-.018.273-.154.436-.425.455a9.922 9.922 0 01-.953.015 5.465 5.465 0 01-.782-.065c-.76-.13-1.405-.522-2.028-.96-.578-.41-1.006-.955-1.426-1.511-1.068-1.416-1.882-2.976-2.596-4.594-.141-.319-.037-.498.315-.527.257-.02.515-.014.774-.016l1.23-.006c.301 0 .503.133.637.41.36.746.729 1.487 1.11 2.222.153.317.374.597.647.82a.828.828 0 00.226.129c.16.058.284 0 .367-.147.136-.24.147-.51.176-.774a5.583 5.583 0 00-.067-1.815c-.074-.346-.29-.527-.622-.601a.853.853 0 01-.155-.067.8.8 0 01.087-.151.867.867 0 01.535-.293 7.834 7.834 0 012.396-.004c.393.063.536.196.574.653.029.361 0 .727-.006 1.092-.006.479-.017.958-.011 1.436a1.2 1.2 0 00.082.417c.108.28.324.318.552.127.371-.31.62-.713.878-1.112.385-.607.71-1.25.974-1.918.03-.077.066-.151.108-.222a.325.325 0 01.285-.167c.84-.01 1.678-.025 2.518-.024.2 0 .41.035.49.273l-.003.192z" fill="#707070"/></svg>
